X: 36734
T: Sheep On The Moor
R: jig
M: 6/8
K: Gmajor
|:B2G AGE|GAB def|g2d edB|dBA AGA|
B2G AGE|GAB def|g2d edB|1 AGF G3:|2 AGF GBd||
|:~g3 gfd|~e3 ede|g2d edB|dBA ABd|
~g3 gfd|~e3 ede|g2d edB|AGF GBd|
~g3 gfd|~e3 ede|g2d edB|dBA AGA|
B2G AGE|GAB def|g2d edB|AGF G3||
|:ABG AGE|GAB def|fgd edB|dBA AGA|
ABG AGE|GAB def|fgd edB|1 AGF G3:|2 AGF GA/B/d||
|:fg2 gfd|de2 ede|fgd edB|dBA ABd|
fg2 gfd|de2 ede|fgd edB|AGF GA/B/d|
fg2 gfd|de2 ede|fgd edB|dBA AGA|
ABG AGE|GAB def|fgd edB|AGF G3||

